X: 40127
T: Tie The Bonnet
R: reel
M: 4/4
K: Amixolydian
A3 g fdec|A2 A=c BGGB|A3 g fdef|gfge dBGB:|
Aeaf gfed|(3cBA eA fAec|Aaaf gfef|gfge dBGB|
Aeaf gfed|(3cBA eA fAed|c2 af gfef|gfge dBGB||

